X: 313
T: Wangxiang wobin
%%abc-version 2.0
%%abcx-abcm2ps-target-version 5.9.1 (29 Sep 2008)
%%abc-creator hum2abc beta
%%abcx-conversion-date 2013/10/02 07:52:30
%%abc-edited-by Helmut Schaffrath
%%humdrum-veritas 2537891009
%%humdrum-veritas-data 3816075516
%%continueall 1
%%barnumbers 0
L: 1/8
M: 2/4
K: Bb
f A c c [I:setbarnb 1]| 
c f d f | 
c d/ c/ B c | 
d c/ B/A2 | 
F> GB2 | 
c d c B | 
c> F B G | 
F4 |]  



